!!!COM: Palestrina, Giovanni Perluigi da
!!!OPR: Missa Sine nomine (1567)
!!!OTL: Gloria
**kern	**kern	**kern	**kern
*Ibass	*Itenor	*Icalto	*Icant
!Bassus	!Tenor	!Altus	!Cantus
*clefF4	*clefGv2	*clefG2	*clefG2
*k[]	*k[]	*k[]	*k[]
*E:phr	*E:phr	*E:phr	*E:phr
*M4/2	*M4/2	*M4/2	*M4/2
=1	=1	=1	=1
2.E	1r	0r	0r
4E	.	.	.
2E	2.B	.	.
2E	.	.	.
.	4B	.	.
=2	=2	=2	=2
2G	2B	0r	0r
2G	2B	.	.
2F	2d	.	.
2F	2d	.	.
=3	=3	=3	=3
2E	2c	0r	0r
1A	2c	.	.
.	2B	.	.
2G	[2e	.	.
=4	=4	=4	=4
2c	2e]	0r	0r
2B	2d	.	.
2.A	2f	.	.
.	[2e	.	.
4G	.	.	.
=5	=5	=5	=5
1F	2e]	1r	1a
.	2d	.	.
1E	1e	2r	2g
.	.	2e	2g
=6	=6	=6	=6
0r	0r	2d	2a
.	.	2d	2b
.	.	2e	2cc
.	.	2f#	2a
=7	=7	=7	=7
0r	1r	2g	2b
.	.	2e	2b
.	2r	2f#	[1a
.	[2d	2f#	.
=8	=8	=8	=8
2r	2d]	1e	1a]
1A	2c	.	.
.	2A	1r	1r
2G	2B	.	.
=9	=9	=9	=9
2E	2c	0r	0r
2F#	2A	.	.
2G	2B	.	.
2E	2c	.	.
=10	=10	=10	=10
2F#	1d	0r	0r
2G	.	.	.
2A	2c	.	.
[2G	2B	.	.
=11	=11	=11	=11
2G]	1A	1r	1r
2F#	.	.	.
1G	2G	2r	2r
.	[2B	[2d	[2g
=12	=12	=12	=12
2r	2B]	2d]	2g]
2G	2B	2d	2g
2G	1B	1d	1g
2G	.	.	.
=13	=13	=13	=13
1F	2c	2f	2.a
.	2d	2f	.
.	.	.	4b
2E	2e	2g	2cc
2D	[2f	[2a	[2dd
=14	=14	=14	=14
1A	4f]	2a]	4dd]
.	4e	.	4cc
.	2c	2f	1cc
1G	1d	1g	.
.	.	.	2b
=15	=15	=15	=15
1C	1c	2r	0cc
.	.	2g	.
1r	2r	2f	.
.	2c	2e	.
=16	=16	=16	=16
0r	2B	2d	0r
.	2A	2e	.
.	2G	4B	.
.	.	4d	.
.	2A	2c	.
=17	=17	=17	=17
1r	4E	4B	1r
.	4G	2e	.
.	2F	.	.
.	.	4d	.
2r	1E	2e	1g
2E	.	2B	.
=18	=18	=18	=18
2E	2r	2c	2g
2E	2e	2B	2g
1F	2c	1A	1a
.	2d	.	.
=19	=19	=19	=19
2E	2e	2B	2g
1A	2e	2A	1cc
.	2A	1e	.
2G#	2B	.	2b
=20	=20	=20	=20
1A	1c	1e	1a
2E	2B	2e	2g#
[2A	[2c	[2e	[2a
=21	=21	=21	=21
2A]	2c]	2e]	2a]
2A	2B	2e	2a
1F	1c	1f	1a
=22	=22	=22	=22
2C	2c	2e	2g
2D	2A	4d	2f
.	.	4c	.
2E	2G#	2B	2e
2F	2A	[2A	2d
=23	=23	=23	=23
1E	1B	2A]	[0e
.	.	2G#	.
2r	2r	1A	.
2A	2c	.	.
=24	=24	=24	=24
2A	2c	0r	0e]
2G#	2B	.	.
1A	1c	.	.
=25	=25	=25	=25
2G	2B	0r	0r
1F	2.d	.	.
.	4c	.	.
2E	[2c	.	.
=26	=26	=26	=26
2D	2c]	1r	1r
2D	2B	.	.
1C	1c	[1e	[1g
=27	=27	=27	=27
1C	2r	1e]	1g]
.	1c	.	.
1G	.	1d	1g
.	2B	.	.
=28	=28	=28	=28
1F	1A	1d	1a
1E	1B	2e	2g#
.	.	2e	2g#
=29	=29	=29	=29
0r	0r	2f	2a
.	.	2d	2b
.	.	2e	2cc
.	.	2f#	2a
=30	=30	=30	=30
0r	0r	2g	2b
.	.	2e	2cc
.	.	1f	1a
=31	=31	=31	=31
1C	1c	2e	2g
.	.	2e	2g
2F	2c	2f	2a
2D	2d	2f	2b
=32	=32	=32	=32
0C	2.e	2.g	2.cc
.	4d	4f	4b
.	2c	1e	2a
.	2B	.	[2g
=33	=33	=33	=33
1D	1A	[0d	2g]
.	.	.	2f#
2r	2G	.	[1g
2G	2B	.	.
=34	=34	=34	=34
2G	2B	1d]	1g]
2G	2B	.	.
1A	1c	1r	1r
=35	=35	=35	=35
2G	2B	2r	1r
2E	2c	1e	.
1F	1A	.	2r
.	.	2d	[2a
=36	=36	=36	=36
1E	1e	2c	2a]
.	.	2B	2g
1r	1r	2A	2f
.	.	[2c	2e
=37	=37	=37	=37
1r	1r	2c]	1d
.	.	2B	.
1C	2r	2c	2e
.	2c	2e	2g
=38	=38	=38	=38
2C	2c	2e	2g
2C	2c	2e	2g
1F	1c	1f	1a
=39	=39	=39	=39
2C	2c	2e	2g
2E	2G	2c	2e
1D	1A	1d	1f
=40	=40	=40	=40
2AA	2A	2c	1e
1A	1c	1e	.
.	.	.	2r
2A	2c	2e	[2a
=41	=41	=41	=41
1A	1c	1e	2a]
.	.	.	2a
[1F	2r	[1f	[1a
.	[2A	.	.
=42	=42	=42	=42
2F]	2A]	2f]	1a]
2F	2A	2f	.
[1C	1G	1e	2.cc
.	.	.	4b
=43	=43	=43	=43
1C]	2.c	2.e	2a
.	.	.	2g
.	4B	4d	.
1r	2A	2c	2f
.	2G	2B	2e
=44	=44	=44	=44
0r	2F	2A	2.a
.	2E	2B	.
.	.	.	4g
.	2.A	1c	2f
.	.	.	[2e
.	4G	.	.
=45	=45	=45	=45
1r	1F	1A	2e]
.	.	.	2d
2r	2E	1B	[1e
2E	2B	.	.
=46	=46	=46	=46
1A	1c	0r	0e]
2G	2B	.	.
2E	2c	.	.
=47	=47	=47	=47
2.F	2.A	0r	0r
4D	4B	.	.
2E	2c	.	.
2F	[2d	.	.
=48	=48	=48	=48
2G	2d]	1r	2r
2A	2c	.	1a
1E	1B	2r	.
.	.	[2e	2g
=49	=49	=49	=49
2r	1A	2e]	1cc
1A	.	2c	.
.	1r	2f	2a
2G	.	2g	[2b-
=50	=50	=50	=50
2c	1r	2e	4b-]
.	.	.	4a
2A	.	1f	1a
1B-	2r	.	.
.	[2d	4e	2g
.	.	4d	.
=51	=51	=51	=51
1A	2d]	1e	1a
.	2c#	.	.
1D	2d	1d	2r
.	2A	.	[2a
=52	=52	=52	=52
0r	2d	0r	2a]
.	2e	.	2g#
.	[1f	.	2a
.	.	.	2d
=53	=53	=53	=53
1D	1f]	1r	2a
.	.	.	2b
[1A	1e	2r	1cc
.	.	2A	.
=54	=54	=54	=54
2A]	1r	2e	1b
2G#	.	2e	.
1A	2r	2f	2r
.	2A	[2e	2a
=55	=55	=55	=55
1F	1A	2e]	1a
.	.	2d	.
1E	2B	1e	2g
.	2c#	.	2e
=56	=56	=56	=56
1r	2d	2r	2f
.	2d	1d	2f
2r	1A	.	[1e
[2A	.	2c	.
=57	=57	=57	=57
2A]	2r	2A	1e]
2G#	1e	2B	.
2.A	.	[1c	2r
.	2e	.	[2a
4G	.	.	.
=58	=58	=58	=58
0F	2.A	2c]	2a]
.	.	4d	2a
.	4B	4e	.
.	1c	1f	1a
=59	=59	=59	=59
1C	2c	1e	2.g
.	2G	.	.
.	.	.	4f
2r	2A	2r	2e
2E	2B	2e	2g
=60	=60	=60	=60
2A	2c	2e	2a
4G	2d	1g	2b
4F	.	.	.
2E	2e	.	2cc
2D	[2f	[2a	[2dd
=61	=61	=61	=61
2A	4f]	2a]	4dd]
.	4e	.	4cc
2A	2c	2f	1cc
1G	1d	[1g	.
.	.	.	2b
=62	=62	=62	=62
2r	2c	0g]	1cc
2c	2e	.	.
2B	2d	.	2r
2c	2e	.	2cc
=63	=63	=63	=63
2G	2d	2r	2b
2.c	1e	2c	2cc
.	.	2e	2g
4B	.	.	.
2A	2c	2f#	2cc
=64	=64	=64	=64
2G	0r	2g	2b
1F	.	2c	1a
.	.	2d	.
2E	.	[2e	[2g
=65	=65	=65	=65
1A	1c	2e]	2g]
.	.	4d	2f#
.	.	4c	.
2G	2B	2d	1g
2c	2c	2e	.
=66	=66	=66	=66
2B	2G	2d	2r
2c	2e	2c	2cc
2G	2d	2r	2b
[2c	[2e	2c	2cc
=67	=67	=67	=67
4c]	2e]	2e	2g
4B	.	.	.
2A	2c	2f#	2cc
2G	2r	2g	2b
2A	2c	[2e	2a
=68	=68	=68	=68
2E	2B	2e]	2g#
2AA	2c	2e	2a
[1C	2G	2.c	2.e
.	[2c	.	.
.	.	4d	4f
=69	=69	=69	=69
2C]	4c]	2e	2g
.	4B	.	.
2D	2A	2d	2.f
2E	2G#	2B	.
.	.	.	4e
2C	2A	2c	[2e
=70	=70	=70	=70
1D	1F	2.A	2e]
.	.	.	2d
.	.	4B	.
1AA	2E	1c	1e
.	2A	.	.
=71	=71	=71	=71
2r	2G#	2B	[0e
2A	2A	2c	.
2G#	2E	2r	.
2A	2c	2A	.
=72	=72	=72	=72
2E	2B	2G#	1e_
2c	2A	2A	.
2B	2G#	2E	1e_
2A	2A	2c	.
=73	=73	=73	=73
2G#	2E	2B	0e]
2A	1c	1A	.
1E	.	.	.
.	2B	2G#	.
=74	=74	=74	=74
0AA	0A	0c	[0e
=75	=75	=75	=75
[0E	[0G#	[0B	1e_
.	.	.	1e_
=76	=76	=76	=76
0E]	0G#]	0B]	0e]
==	==	==	==
*-	*-	*-	*-
!!!CDT: 1525/^1526/-1594/2/2
!!!OCY: Italia
!!!AGN: Mass (Free)
!!!AST: renaissance, vocal
!!!ASW: Motet 1539 (Jacquet)
!!!PWK: Masses, Book 2
!!!RNB: Cadence finals: A,C
!!!YOR: Le Opere Complete, v. 4, p. 53
!!!YOO: Rome, Italy: Fratelli Scalera
!!!END: 1992//
!!!EED: John Miller
!!!YEC: Copyright 2000, John Miller
!!!YEN: United States of America
!!!YEM: Rights to all derivative electronic formats reserved.
!!!YEM: Refer to licensing agreement for further details.
!!!YEM: This file must be accompanied by the licensing agreement.
!!!YEM: A copy of the licensing agreement may be found at http://www.music-cog.ohio-state.edu/HumdrumDatabases/Palestrina/license.txt
!!!EMD: converted to Humdrum by Bret Aarden
